X:1
T:Title
%%score { ( 1 3 4 ) | ( 2 5 6 ) }
L:1/8
M:6/8
K:A
V:1 treble nm="Grand Piano"
V:3 treble 
V:4 treble 
V:2 bass 
V:5 bass 
V:6 bass 
V:1
 z3 z2[Q:1/4=84] [CE] | [CA]>[CA][CA] [A,EA][DEG][CEA] | [DFB][DFA][A,DF] [A,CE]2 E | %3
 A>AA AG[^DA] | B3- B2 E | c>cc [Ec][Fd][Ec] | BAF [CE]2 [CE] | [DF][EA][Ec] B<FG | %8
[M:5/8] [CA]-[CA]- [CA]3 |[M:1/8] E |[M:3/4] B>B BB cB | [CA][CA] [DA] [CA]2 [CA] | %12
 [Ec]>[EB] [EA]A G[^DA] | B4- BE | c>c c[EA] Bc | [Fd]>[Fd] [Fd][DF] [EG][FA] | %16
[M:15/16] z3/2 z c/-c z/ z3 |[M:5/8] [CA]-[CA]- [CA]3 |] %18
V:2
 z3 z2 [A,,A,] | [A,,E,]>[A,,E,][A,,E,] C,B,,A,, | D,D,D, A,,2 [A,C] | %3
 [A,CE]>[A,CE][A,CE] [F,B,^D][F,B,D][B,,A,] | [E,G,E]3- [E,G,E]2 [G,B,] | %5
 [A,E]>[A,E][A,E] [A,,A,][A,,A,][A,,A,] | [D,F,D][D,F,D][D,A,D] [A,,A,]2 [A,,A,] | %7
 [D,A,][C,A,][A,,A,] [E,G,D]<[E,B,D][E,D] |[M:5/8] [A,,E,]-[A,,E,]- [A,,E,]3 |[M:1/8] E, | %10
[M:3/4] [E,G,D]>[E,G,D] [E,G,D][E,G,D] [E,G,E][E,G,D] | [A,,A,][A,,E,] [A,,F,] [A,,E,]2 [A,,E,] | %12
 [A,,A,]>[B,,G,] [C,A,][F,C] [F,B,^D][B,,A,] | [E,G,E]4- [E,G,E][G,B,] | %14
 [A,E]>[A,E] [A,E][C,A,] [E,G,E][A,=G] | [D,A,]>[D,A,] [D,A,][D,A,] [D,A,][^D,A,] | %16
[M:15/16] z3/2 z [A,E]/-[A,E] z/ z3 |[M:5/8] [A,,A,]-[A,,A,]- [A,,A,]3 |] %18
V:3
 x6 | x6 | x6 | x6 | x6 | x6 | x6 | x6 |[M:5/8] x5 |[M:1/8] x |[M:3/4] x6 | x6 | x6 | x6 | x6 | %15
 x6 |[M:15/16] z/ A-A3/2 z/ B z3 |[M:5/8] x5 |] %18
V:4
 x6 | x6 | x6 | x6 | x6 | x6 | x6 | x6 |[M:5/8] x5 |[M:1/8] x |[M:3/4] x6 | x6 | x6 | x6 | x6 | %15
 x6 |[M:15/16] .E3/2 z3/2 z F-<F-F/G |[M:5/8] x5 |] %18
V:5
 x6 | x6 | x6 | x6 | x6 | x6 | x6 | x6 |[M:5/8] x5 |[M:1/8] x |[M:3/4] x6 | x6 | x6 | x6 | x6 | %15
 x6 |[M:15/16] z/ C-C3/2 z/ .[E,D] z3 |[M:5/8] x5 |] %18
V:6
 x6 | x6 | x6 | x6 | x6 | x6 | x6 | x6 |[M:5/8] x5 |[M:1/8] x |[M:3/4] x6 | x6 | x6 | x6 | x6 | %15
 x6 |[M:15/16] [E,A,C]/[E,A,]-[E,A,]E,/-E,/G,/-[E,-G,B,-D-]<[E,B,D]-[E,B,D]/[E,B,D] |[M:5/8] x5 |] %18

